X: 720
T: Kiss the Bride   #2
R: reel
%S: s:2 b:10(5+5)
B: Francis O'Neill: "The Dance Music of Ireland" (1907) #720
Z: Frank Nordberg - http://www.musicaviva.com
F: http://www.musicaviva.com/abc/tunes/ireland/oneill-1001/0720/oneill-1001-0720-1.abc
N: Compacted via another repeat with multiple endings [JC]
M: C|
L: 1/8
K: G
"^A"[|] D2 |  GBAG FGAc | BGBd g2(dg) | ecAG FGAc | BGAF [1 GFED :|[2 G2 |]
"^B"[|] d2 |: g2fg a2ga | bagf g2(dg) | ecAG FGAc | BGAF [1 GFED :|[2 G2 |]
